X:3013
L:1/8
M:3/4
K:G
 BA | G2 GA Bc | d2 B2 gf | e2 eg fe | d2 B2 gf | e2 eg fe | d2 B2 d2 | c4 B2 | A2 F2 D2 | 
 G2 GA Bc | d2 B2 gf | e2 eg fe | d2 B2 gf | e2 eg fe | d2 B2 d2 | c2 B2 A2 | G4 ||

